X:29
T:Seamus O'Shanahan's
C:Paul O'Shaughnessy
R:jig
D:Altan: Harvest Storm
M:6/8
K:C
EAA ABc|BG^F G (3Bcd|edc BA^G|ABc BGF|
~E3 ABc|BG^F G (3Bcd |edc BAG|1 EA^G A=GF:|2 EA^G ABc||
d2f fgf|ecA Adc|B2d dcB|Acd ecA|
dfg agf|ecA Adc|~B3 dBG|1 ABA ABc :|AcA BGF||
E2 A ABc|BGG GBd|edc Bcd|~c3 BGF|
~E3 ABc|BGG GBd|edc Bcd|1cAA AGF:|2 cAA ABc||
d2 f fgf|ecA Adc|B2 d dcB|cee ecA|
def fgf|ecA Adc|Bcd cBG|ABA ABc|
d2 f fgf|ecA Adc|B2 d dcB|cee ecA|
dfg agf|ecA Adc|Bcd BAG|ABA AGF|
